COLOR/status 16/16/bookmark-missing.svg

<svg height="16" viewBox="0 0 16 16" width="16" xmlns="http://www.w3.org/2000/svg"><g stroke-width="1.072709"><path d="m8 .49999988-2.4999643 4.94035772-5.0000357 1.288789 3.75 3.7589674-1.2500357 5.011886 5.0000357-2.577578 5.000036 2.50605-1.250036-5.011885 3.75-3.7589682-5.000036-1.2531325z" fill="#5294e2"/><path d="m8 .5-2.5 4.9394531-5 1.2890625.39648438.3984375 4.60351562-1.1875 2.5-4.9394531 2.5 4.9042969 4.601562 1.1542969.398438-.4003907-5-1.2539062zm3.849609 10.316406-.099609.09961 1.107422 4.439453.142578.072265zm-7.6992184.072266-1.1503906 4.611328.1425781-.074219 1.1074219-4.4375z" fill="#fff" opacity=".3"/><path d="m15.101562 6.5585938-3.351562 3.3574218.099609.4003904 3.650391-3.6582029zm-14.20507762.0683593-.39648438.1015625 3.6503906 3.6601564.0996094-.4003908zm7.10351562 5.7949219-4.8574219 2.503906-.1425781.574219 5-2.578125 5 2.505859-.142578-.572265z" opacity=".2"/></g></svg>

<?xml version="1.0" encoding="UTF-8" standalone="no"?>
<svg
   xmlns:dc="http://purl.org/dc/elements/1.1/"
   xmlns:cc="http://creativecommons.org/ns#"
   xmlns:rdf="http://www.w3.org/1999/02/22-rdf-syntax-ns#"
   xmlns:svg="http://www.w3.org/2000/svg"
   xmlns="http://www.w3.org/2000/svg"
   xmlns:sodipodi="http://sodipodi.sourceforge.net/DTD/sodipodi-0.dtd"
   xmlns:inkscape="http://www.inkscape.org/namespaces/inkscape"
   width="16"
   height="16"
   viewBox="0 0 16 16"
   version="1.1"
   id="svg7"
   sodipodi:docname="bookmark-missing.svg"
   inkscape:version="0.92.4 (5da689c313, 2019-01-14)">
  <metadata
     id="metadata11">
    <rdf:RDF>
      <cc:Work
         rdf:about="">
        <dc:format>image/svg+xml</dc:format>
        <dc:type
           rdf:resource="http://purl.org/dc/dcmitype/StillImage" />
      </cc:Work>
    </rdf:RDF>
  </metadata>
  <sodipodi:namedview
     pagecolor="#ffffff"
     bordercolor="#666666"
     borderopacity="1"
     objecttolerance="10"
     gridtolerance="10"
     guidetolerance="10"
     inkscape:pageopacity="0"
     inkscape:pageshadow="2"
     inkscape:window-width="1920"
     inkscape:window-height="1016"
     id="namedview9"
     showgrid="false"
     inkscape:zoom="14.75"
     inkscape:cx="8"
     inkscape:cy="8"
     inkscape:window-x="0"
     inkscape:window-y="27"
     inkscape:window-maximized="1"
     inkscape:current-layer="svg7" />
  <defs
     id="defs3">
    <style
       id="current-color-scheme"
       type="text/css">
   .ColorScheme-Text { color:#5c616c; } .ColorScheme-Highlight { color:#5294e2; } .ColorScheme-ButtonBackground { color:#d3dae3; }
  </style>
  </defs>
  <path
     style="color:#5294e2;fill:currentColor;stroke-width:1.07270885"
     class="ColorScheme-Highlight"
     d="M 8,0.49999988 5.5000357,5.4403576 0.5,6.7291466 4.25,10.488114 2.9999643,15.5 8,12.922422 13.000036,15.428472 11.75,10.416587 15.5,6.6576188 10.499964,5.4044863 Z"
     id="path5"
     inkscape:connector-curvature="0" />
  <path
     style="color:#5294e2;fill:#ffffff;stroke-width:1.07270885;fill-opacity:1;opacity:0.3"
     d="M 8 0.5 L 5.5 5.4394531 L 0.5 6.7285156 L 0.89648438 7.1269531 L 5.5 5.9394531 L 8 1 L 10.5 5.9042969 L 15.101562 7.0585938 L 15.5 6.6582031 L 10.5 5.4042969 L 8 0.5 z M 11.849609 10.816406 L 11.75 10.916016 L 12.857422 15.355469 L 13 15.427734 L 11.849609 10.816406 z M 4.1503906 10.888672 L 3 15.5 L 3.1425781 15.425781 L 4.25 10.988281 L 4.1503906 10.888672 z "
     id="path822" />
  <path
     style="color:#5294e2;fill:#000000;stroke-width:1.07270885;fill-opacity:1;opacity:0.2"
     d="M 15.101562 6.5585938 L 11.75 9.9160156 L 11.849609 10.316406 L 15.5 6.6582031 L 15.101562 6.5585938 z M 0.89648438 6.6269531 L 0.5 6.7285156 L 4.1503906 10.388672 L 4.25 9.9882812 L 0.89648438 6.6269531 z M 8 12.421875 L 3.1425781 14.925781 L 3 15.5 L 8 12.921875 L 13 15.427734 L 12.857422 14.855469 L 8 12.421875 z "
     id="path835" />
</svg>
